korla/actions/symbolic/image-filter-symbolic.svg

<svg xmlns="http://www.w3.org/2000/svg" width="16" height="16" version="1.1">
 <path style="opacity:0.3;fill:#dfdfdf" d="M 1.5,14.5 C 2.07,11.8 2.76,9.15 8,8 13.22,7.04 13.09,4.35 14,2 V 14.5 Z"/>
 <path style="fill:#dfdfdf" d="M 13.47,1 C 13.206,1 13,1.2638 13,1.5333 13.02,2.7154 12.96,3.8333 12.31,4.7533 11.67,5.6833 10.4,6.4933 7.87,7.0033 5.15,7.5533 3.53,8.6933 2.56,10.063 1.6,11.443 1.28,13.003 1,14.353 L 2,14.563 C 2.28,13.213 2.59,11.823 3.41,10.663 4.22,9.5033 5.53,8.5133 8.06,8.0033 10.74,7.4633 12.29,6.5133 13.12,5.3133 13.96,4.1233 14,2.7433 14,1.5033 14.002,1.2019 13.769,1 13.47,1 Z"/>
 <path style="fill:#dfdfdf" d="M 1,1 H 3 V 15 H 1 Z"/>
 <path style="fill:#dfdfdf" d="M 13,-15 H 15 V -1 H 13 Z" transform="rotate(90)"/>
</svg>

<svg style="clip-rule:evenodd;fill-rule:evenodd;stroke-linejoin:round;stroke-miterlimit:2" version="1.1" viewBox="0 0 16 16" xmlns="http://www.w3.org/2000/svg">
 <path d="m1.5 14.5c0.57-2.7 1.26-5.35 6.5-6.5 5.22-0.96 5.09-3.65 6-6v12.5h-12.5z" style="fill-opacity:.3;fill-rule:nonzero;fill:rgb(223,223,223)"/>
 <path d="m13.47 1c-0.264 0-0.47 0.264-0.47 0.533 0.02 1.182-0.04 2.3-0.69 3.22-0.64 0.93-1.91 1.74-4.44 2.25-2.72 0.55-4.34 1.69-5.31 3.06-0.96 1.38-1.28 2.94-1.56 4.29l1 0.21c0.28-1.35 0.59-2.74 1.41-3.9 0.81-1.16 2.12-2.15 4.65-2.66 2.68-0.54 4.23-1.49 5.06-2.69 0.84-1.19 0.88-2.57 0.88-3.81 2e-3 -0.301-0.231-0.503-0.53-0.503z" style="fill-rule:nonzero;fill:rgb(223,223,223)"/>
 <g transform="matrix(.414392 0 0 1 .585608 0)">
  <rect x="1" y="1" width="2" height="14" style="fill-rule:nonzero;fill:rgb(223,223,223)"/>
 </g>
 <g transform="matrix(-1.39653e-16 .364764 -1 -3.82857e-16 -3.64807e-15 9.52854)">
  <rect x="13" y="-15" width="2" height="14" style="fill-rule:nonzero;fill:rgb(223,223,223)"/>
 </g>
</svg>
